fs/table_dismiss_20_regular.svg

<svg viewBox="0 0 20 20" fill="none" xmlns="http://www.w3.org/2000/svg" height="1em" width="1em">
  <path d="M17 5.5C17 4.11929 15.8807 3 14.5 3H5.5C4.11929 3 3 4.11929 3 5.5V14.5C3 15.8807 4.11929 17 5.5 17H9.59971C9.43777 16.6832 9.30564 16.3486 9.20703 16H8V13H9.20703C9.30564 12.6514 9.43777 12.3168 9.59971 12H8V8H12V9.59971C12.3168 9.43777 12.6514 9.30564 13 9.20703V8H16V9.20703C16.3486 9.30564 16.6832 9.43777 17 9.59971V5.5ZM4 14.5V13H7V16H5.5L5.35554 15.9931C4.59489 15.9204 4 15.2797 4 14.5ZM12 4V7H8V4H12ZM13 4H14.5L14.6445 4.00687C15.4051 4.07955 16 4.7203 16 5.5V7H13V4ZM7 4V7H4V5.5L4.00687 5.35554C4.07955 4.59489 4.7203 4 5.5 4H7ZM7 8V12H4V8H7ZM19 14.5C19 16.9853 16.9853 19 14.5 19C12.0147 19 10 16.9853 10 14.5C10 12.0147 12.0147 10 14.5 10C16.9853 10 19 12.0147 19 14.5ZM15.2071 14.5L16.3536 13.3536C16.5488 13.1583 16.5488 12.8417 16.3536 12.6464C16.1583 12.4512 15.8417 12.4512 15.6464 12.6464L14.5 13.7929L13.3536 12.6464C13.1583 12.4512 12.8417 12.4512 12.6464 12.6464C12.4512 12.8417 12.4512 13.1583 12.6464 13.3536L13.7929 14.5L12.6464 15.6464C12.4512 15.8417 12.4512 16.1583 12.6464 16.3536C12.8417 16.5488 13.1583 16.5488 13.3536 16.3536L14.5 15.2071L15.6464 16.3536C15.8417 16.5488 16.1583 16.5488 16.3536 16.3536C16.5488 16.1583 16.5488 15.8417 16.3536 15.6464L15.2071 14.5Z" fill="#212121"/>
</svg>

<svg viewBox="0 0 20 20" fill="none" xmlns="http://www.w3.org/2000/svg" height="1em" width="1em">
  <path d="M17 5.5A2.5 2.5 0 0 0 14.5 3h-9A2.5 2.5 0 0 0 3 5.5v9A2.5 2.5 0 0 0 5.5 17h4.1a5.465 5.465 0 0 1-.393-1H8v-3h1.207c.099-.349.23-.683.393-1H8V8h4v1.6a5.465 5.465 0 0 1 1-.393V8h3v1.207c.349.099.683.23 1 .393V5.5Zm-13 9V13h3v3H5.5l-.144-.007A1.5 1.5 0 0 1 4 14.5ZM12 4v3H8V4h4Zm1 0h1.5l.145.007A1.5 1.5 0 0 1 16 5.5V7h-3V4ZM7 4v3H4V5.5l.007-.144A1.5 1.5 0 0 1 5.5 4H7Zm0 4v4H4V8h3Zm12 6.5a4.5 4.5 0 1 1-9 0 4.5 4.5 0 0 1 9 0Zm-3.793 0 1.147-1.146a.5.5 0 0 0-.708-.708L14.5 13.793l-1.146-1.147a.5.5 0 0 0-.708.708l1.147 1.146-1.147 1.146a.5.5 0 0 0 .708.708l1.146-1.147 1.146 1.147a.5.5 0 0 0 .708-.708L15.207 14.5Z" fill="#212121"/>
</svg>
